X:377
T: Lieber Nachbar (4-76), S. 97
N: P0647
O: Lothringen
S: PINCK, Louis: Verklingende Weisen Bd 4, Kassel 1939]
R: ???]
M: 3/4
L: 1/8
K: F
FA | c2c2dB | c2c2B2 | A2ABGA | F4
FA | c2c2dB | c2c2B2 | A2ABGA | F4
C2 | F2FAF2 | E2E2C2 | F2FAF2 | C4
FA | c2c2dB | c2c2B2 | A2ABGA | F4
C2 | F2FAF2 | E2E2C2 | F2FAF2 | C4
FA | c2c2dB | c2c2B2 | A2ABGA | F4

